X:2938
T:Willkommen in Gr\"unen
C:Joh. Abr. Peter Schulz
O:Germany
Z:Transcribed by Frank Nordberg - http://www.musicaviva.com
F:http://abc.musicaviva.com/tunes/schulz-joh-abr-peter/schulz-willkommen-in.abc
M:3/8
L:1/8
K:A
e|"A"c>BA|{c}"A"BAE|"A"c>Bc|"E7"d2E|"A"e>dc|
w:Will-kom-men im* Gr\"u-nen! Der Him-mel ist blau und blu-mig die
"E7"d2B|"A"c(A/B/)(c/^d/)|"E"e3|"E"E z e|"A"c>de|"D"f2e|
w:Au! Der Lenz ist_ er--schie-den! Er spie-gelt sich hell am
"E7"d>cB|"A"e2c|"A"A3|"A"E z "E"e|"A"c>BA|{c}"A"BA|]
w:luf-ti-gen Quell im Gr\"u-nen. Will-kom-men in Gr\"u-nen!
W:
W:Willkommen im Gr\"unen! Der Himmel ist blau
W:und blumig die Au!
W:Der Lenz ist erschieden! Er spiegelt sich hell
W:am luftigen Quell
W:  im Gr\"unen.
W:  Willkommen in Gr\"unen!
W:
W:Wilkommen im Gr\"unen! Das V\"ogelchen springt
W:auf Srossen und singt:
W:Der Lenz ist erschieden! Ihm s\"auelt der West
W:ums heimliche Nest
W:  im Gr\"unen.
W:  Willkommen in Gr\"unen!
W:
W:
W:  From Musica Viva - http://www.musicaviva.com
W:  the Internet center for free sheet music downloads.


